icons/circle/48/clion.svg

<svg xmlns="http://www.w3.org/2000/svg" viewBox="0 0 48 48">
  <defs>
    <linearGradient y2="46" y1="2" x2="24" x1="24" gradientUnits="userSpaceOnUse" id="linearGradient4171">
      <stop style="stop-color:#55dbb7;stop-opacity:1" offset="0" />
      <stop style="stop-color:#25b9d7;stop-opacity:1" offset="1" />
    </linearGradient>
  </defs>
  <g>
    <path d="m 36.31 5 c 5.859 4.062 9.688 10.831 9.688 18.5 c 0 12.426 -10.07 22.5 -22.5 22.5 c -7.669 0 -14.438 -3.828 -18.5 -9.688 c 1.037 1.822 2.306 3.499 3.781 4.969 c 4.085 3.712 9.514 5.969 15.469 5.969 c 12.703 0 23 -10.298 23 -23 c 0 -5.954 -2.256 -11.384 -5.969 -15.469 c -1.469 -1.475 -3.147 -2.744 -4.969 -3.781 z m 4.969 3.781 c 3.854 4.113 6.219 9.637 6.219 15.719 c 0 12.703 -10.297 23 -23 23 c -6.081 0 -11.606 -2.364 -15.719 -6.219 c 4.16 4.144 9.883 6.719 16.219 6.719 c 12.703 0 23 -10.298 23 -23 c 0 -6.335 -2.575 -12.06 -6.719 -16.219 z" style="opacity:0.05" />
    <path d="m 41.28 8.781 c 3.712 4.085 5.969 9.514 5.969 15.469 c 0 12.703 -10.297 23 -23 23 c -5.954 0 -11.384 -2.256 -15.469 -5.969 c 4.113 3.854 9.637 6.219 15.719 6.219 c 12.703 0 23 -10.298 23 -23 c 0 -6.081 -2.364 -11.606 -6.219 -15.719 z" style="opacity:0.1" />
    <path d="m 31.25 2.375 c 8.615 3.154 14.75 11.417 14.75 21.13 c 0 12.426 -10.07 22.5 -22.5 22.5 c -9.708 0 -17.971 -6.135 -21.12 -14.75 a 23 23 0 0 0 44.875 -7 a 23 23 0 0 0 -16 -21.875 z" style="opacity:0.2" />
  </g>
  <path style="opacity:1;fill:url(#linearGradient4171);fill-opacity:1" d="M 47,24 A 23.000001,23.000001 0 0 1 23.999999,47 23.000001,23.000001 0 0 1 1,24 23.000001,23.000001 0 0 1 23.999999,1.0000002 23.000001,23.000001 0 0 1 47,24 Z" />
  <g>
    <path d="m 40.03 7.531 c 3.712 4.084 5.969 9.514 5.969 15.469 0 12.703 -10.297 23 -23 23 c -5.954 0 -11.384 -2.256 -15.469 -5.969 4.178 4.291 10.01 6.969 16.469 6.969 c 12.703 0 23 -10.298 23 -23 0 -6.462 -2.677 -12.291 -6.969 -16.469 z" style="opacity:0.1" />
  </g>
  <g>
    <path d="m 12,12 26,0 0,26 -26,0 z" style="fill:#000000;fill-opacity:0.1" />
    <path d="m 11,11 26,0 0,26 -26,0 z" style="fill:#303030;fill-opacity:1" />
    <path style="fill:#f9f9f9;fill-opacity:1" d="m 19,13.998047 c -3.310185,0 -5,2.371962 -5,5.441406 0,3.069445 1.810185,5.618784 5,5.558594 2.046296,0 3.28776,-0.804108 4.371094,-2.007813 L 22,21.59375 c -0.842592,0.782407 -1.796296,1.404297 -3,1.404297 -1.855211,0 -2.985329,-1.733985 -2.998047,-3.587891 0.0127,-1.852621 1.202154,-3.412109 2.998047,-3.412109 1.083333,0 2.001158,0.403139 2.84375,1.185547 l 1.306641,-1.566406 C 22.127242,14.594039 21.046296,13.998047 19,13.998047 Z m 6,0.002 0,11 7,0 0,-2 -5,0 0,-9 -2,0 z" />
    <path style="opacity:1;fill:#f9f9f9;fill-opacity:1;" d="m 13,32 10,0 0,2 -10,0 z" />
  </g>
</svg>

<svg xmlns="http://www.w3.org/2000/svg" viewBox="0 0 48 48">
  <defs>
    <linearGradient y2="46" y1="2" x2="24" x1="24" gradientUnits="userSpaceOnUse" id="a">
      <stop offset="0" stop-color="#55dbb7"/>
      <stop offset="1" stop-color="#25b9d7"/>
    </linearGradient>
  </defs>
  <path d="M36.31 5c5.859 4.062 9.688 10.831 9.688 18.5 0 12.426-10.07 22.5-22.5 22.5-7.669 0-14.438-3.828-18.5-9.688a23.24 23.24 0 0 0 3.781 4.969 22.923 22.923 0 0 0 15.469 5.969c12.703 0 23-10.298 23-23a22.92 22.92 0 0 0-5.969-15.469A23.216 23.216 0 0 0 36.31 5zm4.969 3.781A22.911 22.911 0 0 1 47.498 24.5c0 12.703-10.297 23-23 23a22.909 22.909 0 0 1-15.719-6.219C12.939 45.425 18.662 48 24.998 48c12.703 0 23-10.298 23-23 0-6.335-2.575-12.06-6.719-16.219z" opacity=".05"/>
  <path d="M41.28 8.781a22.923 22.923 0 0 1 5.969 15.469c0 12.703-10.297 23-23 23A22.92 22.92 0 0 1 8.78 41.281 22.911 22.911 0 0 0 24.499 47.5c12.703 0 23-10.298 23-23A22.909 22.909 0 0 0 41.28 8.781z" opacity=".1"/>
  <path d="M31.25 2.375C39.865 5.529 46 13.792 46 23.505c0 12.426-10.07 22.5-22.5 22.5-9.708 0-17.971-6.135-21.12-14.75a23 23 0 0 0 44.875-7 23 23 0 0 0-16-21.875z" opacity=".2"/>
  <path d="M47 24a23 23 0 0 1-23 23A23 23 0 0 1 1 24 23 23 0 0 1 24 1a23 23 0 0 1 23 23z" fill="url(#a)"/>
  <g>
    <path d="M40.03 7.531A22.922 22.922 0 0 1 45.999 23c0 12.703-10.297 23-23 23A22.92 22.92 0 0 1 7.53 40.031C11.708 44.322 17.54 47 23.999 47c12.703 0 23-10.298 23-23 0-6.462-2.677-12.291-6.969-16.469z" opacity=".1"/>
  </g>
  <g>
    <path d="M12 12h26v26H12z" fill-opacity=".1"/>
    <path d="M11 11h26v26H11z" fill="#303030"/>
    <path d="M19 13.998c-3.31 0-5 2.372-5 5.441 0 3.07 1.81 5.62 5 5.559 2.046 0 3.288-.804 4.371-2.008L22 21.594c-.843.782-1.796 1.404-3 1.404-1.855 0-2.985-1.734-2.998-3.588.013-1.852 1.202-3.412 2.998-3.412 1.083 0 2.001.403 2.844 1.186l1.306-1.567c-1.023-1.023-2.104-1.619-4.15-1.619zM25 14v11h7v-2h-5v-9h-2zM13 32h10v2H13z" fill="#f9f9f9"/>
  </g>
</svg>
